X:5
T:Morgiana In Ireland. G&D_1811.05
M:6/8
L:1/8
Q:3/8=120
B:Goulding, D’Almaine & Potter 24 CDs, 1811
A:London
Z:Village Music Project, 1999, Chris Partington
W:1st Lady & 2nd Gent: change places the 2nd Lady & 1st Gent do the same.
W:Poussette & right & left.
K:Bb
F2FB2B|cBcd3|F2FB2B|cBc dBG|
F2FB2B|cBcd2f|gfe dcB|cBc dBG||
f2f fed|g2ab3|fgf fed|g2ab3|
f2f fed|g2g gab|fge dec|B2c dBG||
BcB (d<f) z|cdc (e<g)z|BcB B2c|d2e dBG|
BcB d<f z|e<gz d<fz|g<bz d<fz|B2c dBG|]

